X: 41699
T: Valerie
R: reel
M: 4/4
K: Edorian
E2 BA B~E3|BdBA FDDF|E2 BA B~E3|FEDB, EA,B,D|
E2 BA B~E3|cdBA FEDF|E2 BA B~E3|FEDF E2 E/E/E||
E2 ec c-dBd|(3cdc Ac d~B3|Eeed efed|BABd e2 ed|
E2 ec c-dBd|(3cdc Ac d~B3|ABde ~f3d|BABe dBAF||

